public/assets/Selected.svg

<svg width="9" height="38" viewBox="0 0 9 38" fill="none" xmlns="http://www.w3.org/2000/svg">
<g id="Selected">
<mask id="path-1-inside-1_1_230" fill="white">
<path fill-rule="evenodd" clip-rule="evenodd" d="M4.1247 0.503418C2.0175 3.25297 0.82312 6.66026 0.82312 10.2376V27.7624C0.82312 31.3398 2.0175 34.7471 4.1247 37.4966C4.24297 36.4423 4.44509 35.3978 4.72968 34.3733L7.51312 24.3529C8.48598 20.8506 8.48598 17.1494 7.51312 13.6471L4.72968 3.62673C4.44509 2.6022 4.24297 1.55776 4.1247 0.503418Z"/>
</mask>
<path fill-rule="evenodd" clip-rule="evenodd" d="M4.1247 0.503418C2.0175 3.25297 0.82312 6.66026 0.82312 10.2376V27.7624C0.82312 31.3398 2.0175 34.7471 4.1247 37.4966C4.24297 36.4423 4.44509 35.3978 4.72968 34.3733L7.51312 24.3529C8.48598 20.8506 8.48598 17.1494 7.51312 13.6471L4.72968 3.62673C4.44509 2.6022 4.24297 1.55776 4.1247 0.503418Z" fill="url(#paint0_linear_1_230)"/>
<path d="M4.1247 0.503418L5.11846 0.391939L4.84162 -2.076L3.33098 -0.10487L4.1247 0.503418ZM4.1247 37.4966L3.33098 38.1049L4.84162 40.076L5.11846 37.6081L4.1247 37.4966ZM4.72968 34.3733L5.69319 34.6409L4.72968 34.3733ZM7.51312 24.3529L6.54961 24.0852H6.54961L7.51312 24.3529ZM7.51312 13.6471L6.54961 13.9148H6.54961L7.51312 13.6471ZM4.72968 3.62673L3.76616 3.89437L4.72968 3.62673ZM1.82312 10.2376C1.82312 6.88396 2.94269 3.68971 4.91841 1.11171L3.33098 -0.10487C1.09231 2.81623 -0.17688 6.43656 -0.17688 10.2376H1.82312ZM1.82312 27.7624V10.2376H-0.17688V27.7624H1.82312ZM4.91841 36.8883C2.94269 34.3103 1.82312 31.1161 1.82312 27.7624H-0.17688C-0.17688 31.5635 1.09231 35.1838 3.33098 38.1049L4.91841 36.8883ZM5.11846 37.6081C5.23082 36.6065 5.42283 35.6142 5.69319 34.6409L3.76616 34.1057C3.46734 35.1814 3.25512 36.2781 3.13093 37.3851L5.11846 37.6081ZM5.69319 34.6409L8.47664 24.6205L6.54961 24.0852L3.76616 34.1057L5.69319 34.6409ZM8.47664 24.6205C9.49814 20.9431 9.49814 17.0569 8.47664 13.3795L6.54961 13.9148C7.47382 17.2419 7.47382 20.7581 6.54961 24.0852L8.47664 24.6205ZM8.47664 13.3795L5.69319 3.35908L3.76616 3.89437L6.54961 13.9148L8.47664 13.3795ZM5.69319 3.35908C5.42283 2.38578 5.23082 1.39357 5.11846 0.391939L3.13093 0.614897C3.25512 1.72196 3.46734 2.81862 3.76616 3.89437L5.69319 3.35908Z" fill="white" fill-opacity="0.4" style="mix-blend-mode:overlay" mask="url(#path-1-inside-1_1_230)"/>
</g>
<defs>
<linearGradient id="paint0_linear_1_230" x1="28.5" y1="21" x2="8.50003" y2="43" gradientUnits="userSpaceOnUse">
<stop stop-color="#C441F4"/>
<stop offset="1" stop-color="#00DAEA"/>
</linearGradient>
</defs>
</svg>

<svg width="9" height="38" fill="none" xmlns="http://www.w3.org/2000/svg"><mask id="b" fill="#fff"><path fill-rule="evenodd" clip-rule="evenodd" d="M4.125.503a15.997 15.997 0 0 0-3.302 9.735v17.524c0 3.578 1.195 6.985 3.302 9.735a20 20 0 0 1 .605-3.124l2.783-10.02a20 20 0 0 0 0-10.706L4.73 3.627A20 20 0 0 1 4.125.503Z"/></mask><path fill-rule="evenodd" clip-rule="evenodd" d="M4.125.503a15.997 15.997 0 0 0-3.302 9.735v17.524c0 3.578 1.195 6.985 3.302 9.735a20 20 0 0 1 .605-3.124l2.783-10.02a20 20 0 0 0 0-10.706L4.73 3.627A20 20 0 0 1 4.125.503Z" fill="url(#a)"/><path d="m4.125.503.993-.111-.276-2.468L3.33-.105l.794.608Zm0 36.994-.794.608 1.51 1.971.277-2.468-.993-.111Zm.605-3.124.963.268-.963-.268Zm2.783-10.02-.963-.268.963.268Zm0-10.706-.963.268.963-.268ZM4.73 3.627l-.964.267.964-.267Zm-2.907 6.61c0-3.353 1.12-6.547 3.095-9.125L3.331-.105A16.997 16.997 0 0 0-.177 10.238h2Zm0 17.525V10.238h-2v17.524h2Zm3.095 9.126a14.997 14.997 0 0 1-3.095-9.126h-2c0 3.802 1.27 7.422 3.508 10.343l1.587-1.217Zm.2.72c.113-1.002.305-1.994.575-2.967l-1.927-.535a21 21 0 0 0-.635 3.28l1.987.222Zm.575-2.967 2.784-10.02-1.927-.536-2.784 10.02 1.927.536Zm2.784-10.02a21 21 0 0 0 0-11.241l-1.927.535a19 19 0 0 1 0 10.17l1.927.535Zm0-11.241L5.693 3.36l-1.927.534 2.784 10.02 1.927-.534ZM5.693 3.36A19 19 0 0 1 5.118.391L3.131.615a21 21 0 0 0 .635 3.28l1.927-.536Z" fill="#fff" fill-opacity=".4" style="mix-blend-mode:overlay" mask="url(#b)"/><defs><linearGradient id="a" x1="28.5" y1="21" x2="8.5" y2="43" gradientUnits="userSpaceOnUse"><stop stop-color="#C441F4"/><stop offset="1" stop-color="#00DAEA"/></linearGradient></defs></svg>
